X:1
T:Iayme le cueur
T:Iayme le cueur
T:Claudin de Sermisy
T:Source : Il primo libro di madrigali a 3 voci---Venetia---A.Gardano---1559. Editor : André Vierendeels (02/11/14).
T:Notes : Original clefs : G2, C1, C3 Original note values have been halved Editorial accidentals above the staff Signed "Claudin"
C:Claudin de Sermisy
%%score [ 1 2 3 ]
L:1/8
Q:1/4=90
M:2/2
K:F
V:1 treble nm="Canto 1                       1" snm="S 1"
V:2 treble nm="Canto 2" snm="S 2"
V:3 treble-8 nm="Tenor" snm="T"
V:1
 z4 z2 F2 |: F2 B2 B2 G2 | G2 c3 B AG | F2 f3 e dc | BA G2 c4 | A2 d4 c2 | B2 A2 G4 | F2 A4 GF |1 %8
w: Iay-|me le cueur de|ma my- * * *||* * e, sa|bon- te, et|sa doul- *||
w: |lay- me sans in-|fa- mi- * * *||* * e, et|co- me'ung fre-|* re sa||
 E4 z2 F2 :|2 F4 z4 || F4 F2 A2- | A2 G2 A2 B2 | c6 B2 | A3 G/F/ EF G2- | GF DE FE DC | D4 C3 D | %16
w: ceur, ie|seur,|a- mis- tye|* des- me- su-|ree, _|_ _ _ _ _ des-|* * me- * sur- * * *|re- * *|
w: ||||||||
 EF GA Bc d2- | dc c4 B2 | c4 z2 c2 | A2 F2 z2 c2 | A2 F4 G2 | A2 B2 c2 B2- | B2 A4 G2 | %23
w: ||e nest|ia- mais, nest|ia- mais bien|as- su- re- *||
w: |||||||
 A4 z2 d2- | d2 d2 c2 c2- | c2 B2 A4 | G4 z4 | c6 B2 | A2 G2 F2 E2 | FG AF G4 | c6 B2 | %31
w: e et|* mest le cueur|* en tor-|ment,|ie veulx|ay- mer aul- tre-|ment , * * *|ie veulx|
w: ||||||||
 A2 G2 F2 E2 | FG AF G4 | F8 |] %34
w: ay- mer aul- tre-||ment.|
w: |||
V:2
 C2 C2 F2 F2 |: D2 D2 G3 F | ED C4 c2- | cB AG F2 G2- | G2 E2 A3 G | FE F3 D EF | G2 F4 E2 | %7
w: Iay- me le cueur|de ma my- *||* * * * e, sa|* bon- te, _|_ _ _ et * *|sa doul- *|
w: |in- fa- mi- *||* * * * e, et|* co- me'ung _|_ _ fre- * * *|re sa- *|
 F4 z4 |1 C2 C2 F2 F2 :|2 F8 || z8 | z4 F2 F2 | A2 G2 A2 B2 | c3 B/A/ GA B2- | BA FG A2 G2- | %15
w: ceur,|ie lay- me sans|seur,||a- mis-|tye des- me- su-|re- * * * * *||
w: ||||||||
 GE FG E2 C2- | CD EF GE F2- | FE DC D4 | C4 z2 c2- | c2 A2 F4 | z4 B4 | A2 F2 G4 | G2 A2 B4 | %23
w: * * * * e, des-|* * me- * * * su-|* * * * re-|e nest|* ia- mais,|nest|ia- mais bien|as- su- re-|
w: ||||||||
 A4 z2 B2- | B2 B2 A2 A2- |"^#" AG G4 F2 | G8- | G4 z4 | c3 B A2 G2- | GF F4 E2 | F4 z4 | %31
w: e et|* mest le cueur|* * en tor-|ment,||ie veulx ay- mer|* * aul- tre-|ment,|
w: ||||||||
 c3 B A2 G2- | GF F4 E2 | F8 |] %34
w: ie veulx ay- mer|* * aul- tre-|ment.|
w: |||
V:3
 z4 F2 F2 |: B2 B2 G2 G2 | c3 B AG F2 | f3 e dc BA | G2 c4 A2 | d3 c B2 A2 | G2 A2 B2 c2 | F8 |1 %8
w: Iay- me|le cueur de ma|my- * * * *||e, sa bon-|te _ _ _|_ et sa doul-|ceur,|
w: |me sans in- fa-|mi- * * * *||e, et co-|me'ung * * fre-|* * re sa||
 z4 F2 F2 :|2 F4 z2 B2- || B2 B2 d2 c2 | d2 e2 f2 d2 | c3 B A2 G2 | FG AB cB GA | Bc d3 c c2- | %15
w: ie lay-|seur, a-|* mis- tye des-|me- su- re- *||||
w: |||||||
 c2 B2 c2 F2 | c3 B G2 B2 | A4 G4 | z2 c4 A2 | F4 z2 f2- | f2 d2 B4 | f2 d2 c2 G2 | B2 c2 d2 e2 | %23
w: * * e, des-|me- * * su-|re- e|nest ia-|mais, nest|* ia- mais|bien as- su- re-||
w: ||||||||
 f4 z2 B2- | B2 B2 f3 f | e2 g2 d4 | G4 z2 c2- | c2 B2 A2 G2 | F2 E2 F2 c2 | F4 z2 c2- | %30
w: e et|* mest le cueur|en tor- *|ment, ie|* veulx ay- mer|aul- * * tre-|ment, ie|
w: |||||||
 c2 B2 A2 G2 | F2 E2 F2 c2 | d4 c4 | F8 |] %34
w: * veulx ay- mer|aul- * * *|* tre-|ment.|
w: ||||

